X: 1
T: Stirling Castle
M: 4/4
Z: John Chambers <jc@trillian.mit.edu>
L: 1/8
K: D
|| "D"D2 F>A D>A F-<A | "A7"A,2 C>E A,>E C-<E |  "D"D2 F>A D>A F-<A \
|1 "G"(3Bcd (3efg "D"(3fed "A7"(3cBA :|2 "G"(3Bcd "A7"(3efg "D"f-<d d2 ||
A \
|| "D"d2 f>d g>e f>d | "G"g2 e>d "A7"c>B (3ABc | "D"d2 f>d g>e f>d \
| "G"(3Bcd "A7"(3efg "D"f-<d d>A |  "D"d2 f>d g>e f>d |
| "G"B2 c>d "A7"(3efd (3cBA | "D"(3fga (3gfe (3dcB (3AGF |1 "G"(3GAB "A7"(3ABc "D"(3eAG "A7"(3FGE |]2 "G"(3GAB "A7"(3ABc "D"d-<D D |]
